X:1
T:Best That You Can Do (Arthur's Theme)
T:Best that You Can Do
T:Burt Bacharach, Christopher Cross
T:Carol Bayer Sager, Peter Allen
C:Burt Bacharach, Christopher Cross
Z:All Rights Reserved
L:1/8
M:2/2
K:A
V:1 treble 
%%MIDI program 0
V:1
"Dm7" =ffff z2 AA- |"G7" (AB)B z z4 |"C" eeee- e2 =c2 |"F" =f2 e2 d2 =c2 |"Bb" dddd z2 =F2 | %5
w: Once in your life you'll find|* * her.|Some- one who turns * your|head a- round and|next thing you know you're|
w: Arth- ur he does what he|plea- * ses.|All of his life * his|mas- ters toys and|deep in his heart he's|
"E7sus4" E4"E7" d z z2 |"A" d2 ce z4 |"Dm7" =ffff z2 AA- |"G7" ABBB z4 |"C" eeee e2 =c=f- | %10
w: clos- in'|down the town.|Wake up and she's still with|* you. * *|e- ven tho' you left her way|
w: just, he's|just a boy.|Liv- in' his life one day|* at a time,|show- in him- self * a real-|
"F" f=f e2 d2 =c2 |"Bb" dddd z2 =F2 |"E7sus4" E z z2"E7" B z z2 |"A" dBce z4 |"A7" z8 | %15
w: * a- cross town You're|won- der- in' to your-|self, hey,|what have I found?||
w: * ly good time he's|Laugh- in' a- bout the|way they|want him to be.||
"Dmaj7" aaaa z aaa | a2"E/D" f2 g2"D" f2 |"Amaj7" e3 c z4 | z4 z ccc |"Bm7" c2 d z z4 | z4 z ABc- | %21
w: If you get caught be- tween the|moon and New York|Cit- y|I know it's|cra- zy,|but it's true|
w: ||||||
"A" c G2 A- A e3- |"A/C#" e G2 A- A e3 |"Dmaj7" aaaa z aaa | a2 g2"D" g2 f2 |"C#m7" e4- e3 c | %26
w: ||If you get caught be- tween the|moon and New York|Ci- * *|
w: |||||
"F#7" f z z2 z2 z c |"Bm7" d z dd z e z f | z4 z2 z c | d z dd z e z f | z2 z"E7" c (dc)AA- | %31
w: ty, the|best that you can do|the|best that you can do|is fall * in love.|
w: |||||
"A" A4 z4 | z8 |] %33
w: ||
w: ||

